icon-themes/breeze_svg/cmd/lc_timefield.svg

<svg viewBox="0 0 24 24" xmlns="http://www.w3.org/2000/svg"><path d="m12 4c-4.4319982 0-8 3.5680018-8 8 0 4.431998 3.5680018 8 8 8 4.431998 0 8-3.568002 8-8 0-4.4319982-3.568002-8-8-8zm0 1c3.877999 0 7 3.1220013 7 7 0 3.877999-3.122001 7-7 7-3.8779987 0-7-3.122001-7-7 0-3.8779987 3.1220013-7 7-7zm-1 1v7h1 5v-1h-5v-6z" fill="#4d4d4d"/></svg>

<svg xmlns="http://www.w3.org/2000/svg" viewBox="0 0 24 24">
 <path 
     style="fill:#4d4d4d" 
     d="M 12 4 C 7.5680018 4 4 7.5680018 4 12 C 4 16.431998 7.5680018 20 12 20 C 16.431998 20 20 16.431998 20 12 C 20 7.5680018 16.431998 4 12 4 z M 12 5 C 15.877999 5 19 8.1220013 19 12 C 19 15.877999 15.877999 19 12 19 C 8.1220013 19 5 15.877999 5 12 C 5 8.1220013 8.1220013 5 12 5 z M 11 6 L 11 13 L 12 13 L 17 13 L 17 12 L 12 12 L 12 6 L 11 6 z "
     />
 </svg>
